src/assets/icons/unfold-more.svg

<svg viewBox="0 0 24 24">
  <path d="M12 5.83l3.17 3.17 1.415-1.415-4.585-4.585-4.585 4.585 1.415 1.415 3.17-3.17zM12 18.17l-3.17-3.17-1.415 1.415 4.585 4.585 4.585-4.585-1.415-1.415-3.17 3.17z"></path>
</svg>

﻿<?xml version="1.0" encoding="utf-8"?>
<!DOCTYPE svg PUBLIC "-//W3C//DTD SVG 1.1//EN" "http://www.w3.org/Graphics/SVG/1.1/DTD/svg11.dtd">
<svg xmlns="http://www.w3.org/2000/svg" xmlns:xlink="http://www.w3.org/1999/xlink" version="1.1" baseProfile="full" width="24" height="24" viewBox="0 0 24.00 24.00" enable-background="new 0 0 24.00 24.00" xml:space="preserve">
	<path fill="#000000" fill-opacity="1" stroke-linejoin="round" d="M 12,18.17L 8.83,15L 7.42,16.41L 12,21L 16.59,16.41L 15.17,15M 12,5.83L 15.17,9L 16.58,7.59L 12,3L 7.41,7.59L 8.83,9L 12,5.83 Z "/>
</svg>
